!!!!SEGMENT: pl-gd--ee-2628--007-017_stabile-annibale--sacrarum-modulationum-tu-gloria-hierusalem-a-8.krn
!!!cenid: 15xx:1106
!!!COM: Stabile, Annibale
!!!COM-rismID:
!!!CDT: ~1535-1595/04
!!!CNT: Italian
!!!GTL: Sacrarum modulationum
!!!OTL: Tu gloria Hierusalem a 8
!!!OMV: 017
!!!PDT: 1585
!!!AGN:
!!!SMS-siglum: PL-GD
!!!SMS-shelfmark: Ee 2628
!!!SMS-shelfwork: 007-017 G
!!!SMS-variant:
!!!SMS-altvar:
!!!NIFC-rismSourceID: 990060529
!!!NIFC-islandoraID: pl-gd:66139
!!!URL-pdf-islandora: https://repozytorium.nifc.pl/islandora/object/pl-gd%3A66139/datastream/PDF/view
!!!URL-scan: https://polish.musicsources.pl/pl/lokalizacje/galeria/klocki-introligatorskie/673 @EN{Scan on Polish Music Herritage in Open Access Website} @PL{Skany w portalu Dziedzictwo Muzyki Polskiej w otwartym dostępie}
!!!ONB-nifc: UWAGA: Cantus: s. 102-113, Tenore: s. 258-269, Basso: s. 414-425, Quinto: s. 736-747, Sextus: s. 624-632. Dla głosu Alto proszę skorzystać z https://pbc.gda.pl/dlibra/publication/87583/edition/79412/content, s. 25-48. Uwaga: utwory podzielone wg spisu treści dostępnych na końcu ksiąg – proszę sprawdzać sąsiednie tytuły i zwracać uwagę na liczbę głosów. Głosy Quinto i Sextus proszę umieszczać wg ambitusu (może się różnić w zależności od utworu).
!!!AIN: 2 alto 2 bass 2 soprn 2 tenor
!!!key: F
**kern	**text	**kern	**text	**kern	**text	**kern	**text	**kern	**text	**kern	**text	**kern	**text	**kern	**text
*part8	*part8	*part7	*part7	*part6	*part6	*part5	*part5	*part4	*part4	*part3	*part3	*part2	*part2	*part1	*part1
*staff8	*staff8	*staff7	*staff7	*staff6	*staff6	*staff5	*staff5	*staff4	*staff4	*staff3	*staff3	*staff2	*staff2	*staff1	*staff1
*I"BASSVS 2.	*	*I"BASSVS	*	*I"TENOR 2.	*	*I"TENOR	*	*I"ALTVS 2.	*	*I"ALTVS	*	*I"CANTVS 2.	*	*I"CANTVS	*
*I'Coro B 2	*	*I'Coro B 1	*	*I'Coro T 2	*	*I'Coro T 1	*	*I'Coro A 2	*	*I'Coro A 1	*	*I'Coro S 2	*	*I'Coro S 1	*
*ICvox	*	*ICvox	*	*ICvox	*	*ICvox	*	*ICvox	*	*ICvox	*	*ICvox	*	*ICvox	*
*Ibass	*	*Ibass	*	*Itenor	*	*Itenor	*	*Ialto	*Ialto	*Ialto	*	*Isoprn	*	*Isoprn	*
*clefF4	*	*clefF4	*	*clefC4	*	*clefC4	*	*clefC3	*	*clefC3	*	*clefC1	*	*clefC1	*
*k[b-]	*	*k[b-]	*	*k[b-]	*	*k[b-]	*	*k[b-]	*	*k[b-]	*	*k[b-]	*	*k[b-]	*
*F:	*	*F:	*	*F:	*	*F:	*	*F:	*	*F:	*	*F:	*	*F:	*
*M2/1	*	*M2/1	*	*M2/1	*	*M2/1	*	*M2/1	*	*M2/1	*	*M2/1	*	*M2/1	*
*met(C|)	*	*met(C|)	*	*met(C|)	*	*met(C|)	*	*met(C|)	*	*met(C|)	*	*met(C|)	*	*met(C|)	*
=1-	=1-	=1-	=1-	=1-	=1-	=1-	=1-	=1-	=1-	=1-	=1-	=1-	=1-	=1-	=1-
!LO:TX:a:t=Secundus Chorus. OCto Vocum.	!	!	!	!LO:TX:a:t=Secundus Chorus. OCto Vocum.	!	!LO:TX:a:t=Primus Chorus. OCto Vocum.	!	!LO:TX:a:t=Secundus Chorus. OCto Vocum.	!	!LO:TX:a:t=Primus Chorus. OCto Vocum.	!	!LO:TX:a:t=Secundus Chorus. OCto Vocum.	!	!LO:TX:a:t=Primus Chorus. OCto Vocum.	!
0r	.	0FF	TV	0r	.	0A	TV	0r	.	0c	TV	0r	.	0f	TV
=2-	=2-	=2-	=2-	=2-	=2-	=2-	=2-	=2-	=2-	=2-	=2-	=2-	=2-	=2-	=2-
0FF	TV	1.F	glo-	0F	TV	1.c	glo-	0A	TV	2r	.	0cc	TV	1.a	glo-
.	.	.	.	.	.	.	.	.	.	1f	glo-	.	.	.	.
.	.	2F\	-ri-	.	.	2c\	-ri-	.	.	2f\	-ri-	.	.	2a\	-ri-
=3-	=3-	=3-	=3-	=3-	=3-	=3-	=3-	=3-	=3-	=3-	=3-	=3-	=3-	=3-	=3-
*	*	*	*	*	*	*	*	*lig	*	*	*	*	*	*	*
*	*	*	*	*	*	*	*	*col	*	*	*	*	*	*	*
1.BB-	glo-	2BB-/	-a	2.D/	glo-	1.d	-a	1F	glo-	1f	-a	1.b-	glo-	1.b-	-a
.	.	2BB-/	Hie-	.	.	.	.	.	.	.	.	.	.	.	.
.	.	.	.	4E/	.	.	.	.	.	.	.	.	.	.	.
.	.	2.D/	-ru-	2F/	.	.	.	2.B-/	-ri-	1f	Hie-	.	.	.	.
2BB-/	-ri-	.	.	2F/	-ri-	2d\	Hie-	.	.	.	.	2f/	-ri-	2dd\	Hie-
*	*	*	*	*	*	*	*	*Xlig	*	*	*	*	*	*	*
*	*	*	*	*	*	*	*	*Xcol	*	*	*	*	*	*	*
.	.	4E\	.	.	.	.	.	4B-/	-a	.	.	.	.	.	.
=4-	=4-	=4-	=4-	=4-	=4-	=4-	=4-	=4-	=4-	=4-	=4-	=4-	=4-	=4-	=4-
1FF	-a	1.F	.	1F	-a	4A/	-ru-	2A/	Hie-	1.f	-ru-	1.a	-a	4cc\	-ru-
.	.	.	.	.	.	4G/	.	.	.	.	.	.	.	4b-\	.
.	.	.	.	.	.	4A/	.	2c/	-ru-	.	.	.	.	4a\	.
.	.	.	.	.	.	4B-\	.	.	.	.	.	.	.	4g/	.
1FF	Hie-	.	.	1C	Hie-	2c\	.	2A/	-ſa-	.	.	.	.	2a\	.
.	.	2F\	-ſa-	.	.	2A/	-ſa-	2c/	-lem	2f\	-ſa-	2f/	Hie-	2a\	-ſa-
=5-	=5-	=5-	=5-	=5-	=5-	=5-	=5-	=5-	=5-	=5-	=5-	=5-	=5-	=5-	=5-
1.C	-ru-	1C	-lem	2.E/	-ru-	1G	-lem	2c/	Hie-	1e	-lem	1.g	-ru-	1cc	-lem
.	.	.	.	.	.	.	.	2c/	-ru-	.	.	.	.	.	.
.	.	.	.	4D/	.	.	.	.	.	.	.	.	.	.	.
.	.	1C	Ma-	4E/	.	1G	Ma-	2.c/	-ſa-	1e	Ma-	.	.	1cc	Ma-
.	.	.	.	4F/	.	.	.	.	.	.	.	.	.	.	.
2C/	-ſa-	.	.	1G/	.	.	.	.	.	.	.	2g/	-ſa-	.	.
.	.	.	.	.	.	.	.	4c/	-lem	.	.	.	.	.	.
=6-	=6-	=6-	=6-	=6-	=6-	=6-	=6-	=6-	=6-	=6-	=6-	=6-	=6-	=6-	=6-
1GG	-lem	0G	-ri-	.	.	0B-	-ri-	2d\	.	0d	-ri-	1g	-lem	2.b-\	-ri-
.	.	.	.	2G/	-ſa-	.	.	1d	Ma-	.	.	.	.	.	.
.	.	.	.	.	.	.	.	.	.	.	.	.	.	4a\	.
1GG	Ma-	.	.	2D/	-lem	.	.	.	.	.	.	1dd	Ma-	1g	.
.	.	.	.	2d\	Ma-	.	.	1g\	-ri-	.	.	.	.	.	.
=7-	=7-	=7-	=7-	=7-	=7-	=7-	=7-	=7-	=7-	=7-	=7-	=7-	=7-	=7-	=7-
0D	-ri-	0D	-a	2.d\	-ri-	0A	-a	.	.	0d	-a	0dd	-ri-	0a	-a
.	.	.	.	.	.	.	.	4f#X\	.	.	.	.	.	.	.
.	.	.	.	8c\	.	.	.	4e\	.	.	.	.	.	.	.
.	.	.	.	8B-\	.	.	.	.	.	.	.	.	.	.	.
*	*	*	*	*	*	*	*	*custos:f#	*	*	*	*	*	*	*
!	!	!	!	!	!	!	!	!LO:LB:g=original	!	!	!	!	!	!	!
.	.	.	.	1A	.	.	.	1f#X	.	.	.	.	.	.	.
=8-	=8-	=8-	=8-	=8-	=8-	=8-	=8-	=8-	=8-	=8-	=8-	=8-	=8-	=8-	=8-
!	!	!	!	!F	!	!	!	!	!	!	!	!LO:N:acc=#	!	!	!
0GG	-a	2r	.	0G	-a	2r	.	0g	-a	2r	.	0bn	-a	2r	.
.	.	1G	tu	.	.	1Bn	tu	.	.	1d	tu	.	.	1g	tu
.	.	2G\	lę-	.	.	2B\	le-	.	.	2d\	lę-	.	.	2g/	le-
*	*	*	*	*custos:F	*	*custos:c	*	*	*	*	*	*	*	*custos:a	*
!	!	!	!	!LO:LB:g=original	!	!LO:LB:g=original	!	!	!	!	!	!	!	!LO:LB:g=original	!
=9-	=9-	=9-	=9-	=9-	=9-	=9-	=9-	=9-	=9-	=9-	=9-	=9-	=9-	=9-	=9-
0r	.	2F\	-ti-	0r	.	2c\	-ti-	0r	.	2f\	-ti-	0r	.	2a\	-ti-
.	.	4F\	-ti-	.	.	4c\	-ti-	.	.	4f\	-ti-	.	.	4a\	-ti-
.	.	4D/	-a	.	.	4d\	-a	.	.	4f\	-a	.	.	4b-\	-a
*	*	*custos:F	*	*	*	*	*	*	*	*custos:f	*	*	*	*	*
!	!	!LO:LB:g=original	!	!	!	!	!	!	!	!LO:LB:g=original	!	!	!	!	!
.	.	2F\	Iſ-	.	.	2c\	Iſ-	.	.	2f\	Iſ-	.	.	2a\	Iſ-
.	.	2C/	-ra-	.	.	2c\	-ra-	.	.	2e\	-ra-	.	.	2g/	-ra-
=10-	=10-	=10-	=10-	=10-	=10-	=10-	=10-	=10-	=10-	=10-	=10-	=10-	=10-	=10-	=10-
2r	.	0D	-el	2r	.	0A	-el	2r	.	0d	-el	2r	.	0f#X	-el
1D	tu	.	.	1F#X	Tu	.	.	1d	tu	.	.	1a	tu	.	.
2D/	lę-	.	.	2F#/	le-	.	.	2d\	lę-	.	.	2a\	lę-	.	.
=11-	=11-	=11-	=11-	=11-	=11-	=11-	=11-	=11-	=11-	=11-	=11-	=11-	=11-	=11-	=11-
2C/	-ti-	0r	.	2G/	-ti-	0r	.	2e\	-ti-	0r	.	2cc\	-ti-	0r	.
4C/	-ti-	.	.	4G/	-ti-	.	.	4e\	-ti-	.	.	4cc\	-ti-	.	.
4AA/	-a	.	.	4A/	-a	.	.	4fny\	-a	.	.	4cc\	-a	.	.
*custos:C	*	*	*	*	*	*	*	*	*	*	*ij	*custos:cc	*	*	*
!LO:LB:g=original	!	!	!	!	!	!	!	!	!	!	!	!LO:LB:g=original	!	!	!
2C/	Iſ-	.	.	2G/	Iſ-	.	.	2e\	Iſ-	.	.	2cc\	Iſ-	.	.
2GG/	-ra-	.	.	2G/	-ra-	.	.	2d\	-ra-	.	.	2b-y\	-ra-	.	.
=12-	=12-	=12-	=12-	=12-	=12-	=12-	=12-	=12-	=12-	=12-	=12-	=12-	=12-	=12-	=12-
2AA/	-el	2r	.	2E/	-el	2r	.	2c#X/	-el	2r	.	00.a	-el	2r	.
*	*ij	*	*ij	*	*ij	*	*	*	*ij	*	*	*	*	*	*
1AA	tu	1A	tu	1E	Tu	1A	tu	1c#	tu	1e	tu	.	.	1a	tu
2AA/	lę-	2A\	lę-	2A/	le-	2A/	lę-	2e\	lę-	2e\	lę-	.	.	2cc#X\	lę-
=13-	=13-	=13-	=13-	=13-	=13-	=13-	=13-	=13-	=13-	=13-	=13-	=13-	=13-	=13-	=13-
2D/	-ti-	2D/	-ti-	2Fny/	-ti-	2A/	-ti-	2f\	-ti-	2d\	-ti-	.	.	2dd\	-ti-
4D/	-ti-	4D/	-ti-	4F/	-ti-	4A/	-ti-	4d\	-ti-	4f\	-ti-	.	.	4dd\	-ti-
4D/	-a	4D/	-a	4D/	-a	4A/	-a	4A/	-a	4f\	-a	.	.	4dd\	-a
2AA/	Iſ-	2A\	Iſ-	2E/	Iſ-	2A/	Iſ-	2A/	Iſ-	2e\	Iſ-	.	.	2cc#X\	Iſ-
2AA/	-ra-	2A\	-ra-	2E/	-ra-	2A/	-ra-	2A/	-ra-	2e\	-ra-	.	.	2cc#\	-ra-
=14-	=14-	=14-	=14-	=14-	=14-	=14-	=14-	=14-	=14-	=14-	=14-	=14-	=14-	=14-	=14-
0D	-el	1D	-el	0F#X	-el	1A	-el	0A	-el	1d	-el	.	.	1dd	-el
.	.	2r	.	.	.	2r	.	.	.	2r	.	.	.	2r	.
*	*Xij	*	*Xij	*	*Xij	*	*	*	*Xij	*	*Xij	*	*	*	*
.	.	2D/	tu	.	.	2F#X/	tu	.	.	2d\	tu	.	.	2a\	tu
*	*	*	*	*	*	*	*	*custos:f	*	*	*	*	*	*	*
!	!	!	!	!	!	!	!	!LO:LB:g=original	!	!	!	!	!	!	!
=15-	=15-	=15-	=15-	=15-	=15-	=15-	=15-	=15-	=15-	=15-	=15-	=15-	=15-	=15-	=15-
00r	.	2.D/	ho-	00r	.	2.F#X/	ho-	00r	.	2.d\	ho-	00r	.	2.a\	ho-
!	!	!	!	!	!	!	!	!	!	!	!	!	!	!LO:N:acc=#	!
.	.	4D/	-no-	.	.	4F#/	-no-	.	.	4d\	-no-	.	.	4bn\	-no-
*	*	*	*	*	*	*custos:G	*	*	*	*	*	*	*	*custos:cc	*
!	!	!	!	!	!	!LO:LB:g=original	!	!	!	!	!	!	!	!LO:LB:g=original	!
.	.	2C/	ri-	.	.	2G/	ri-	.	.	2e\	ri-	.	.	2ccny\	ri-
.	.	2BB-/	ſi-	.	.	2B-\	ſi-	.	.	2f\	ſi-	.	.	2dd\	ſi-
*	*	*	*	*	*	*	*	*	*	*custos:f	*	*	*	*	*
!	!	!	!	!	!	!	!	!	!	!LO:LB:g=original	!	!	!	!	!
=16-	=16-	=16-	=16-	=16-	=16-	=16-	=16-	=16-	=16-	=16-	=16-	=16-	=16-	=16-	=16-
.	.	2.F\	-cen-	.	.	2.A/	-cen-	.	.	2.f\	-cen-	.	.	2.cc\	-cen-
.	.	4F\	-ti-	.	.	4A/	-ti-	.	.	4f\	-ti-	.	.	4cc\	-ti-
*	*	*custos:C	*	*	*	*	*	*	*	*	*	*	*	*	*
!	!	!LO:LB:g=original	!	!	!	!	!	!	!	!	!	!	!	!	!
.	.	2C/	-a	.	.	1G	-a	.	.	2e-X\	-a	.	.	2cc\	-a
.	.	2.G\	po-	.	.	.	.	.	.	2.d\	po-	.	.	2.b-y\	po-
=17-	=17-	=17-	=17-	=17-	=17-	=17-	=17-	=17-	=17-	=17-	=17-	=17-	=17-	=17-	=17-
00r	.	.	.	00r	.	2.d\	po-	00r	.	.	.	00r	.	.	.
.	.	4G\	-pu-	.	.	.	.	.	.	4d\	-pu-	.	.	4b-\	-pu-
.	.	2F\	-li	.	.	.	.	.	.	2A/	-li	.	.	2a\	-li
.	.	.	.	.	.	4d\	-pu-	.	.	.	.	.	.	.	.
.	.	2.B-\	no-	.	.	2G/	-li	.	.	2.d\	no-	.	.	2g/	no-
.	.	.	.	.	.	2.d\	no-	.	.	.	.	.	.	1fny/	.
.	.	4A\	.	.	.	.	.	.	.	4c/	.	.	.	.	.
=18-	=18-	=18-	=18-	=18-	=18-	=18-	=18-	=18-	=18-	=18-	=18-	=18-	=18-	=18-	=18-
.	.	0G	.	.	.	.	.	.	.	4B-/	.	.	.	.	.
.	.	.	.	.	.	4c\	.	.	.	4A/	.	.	.	.	.
.	.	.	.	.	.	4B-\	.	.	.	2.G/	.	.	.	4e/	.
.	.	.	.	.	.	4A/	.	.	.	.	.	.	.	4d/	.
.	.	.	.	.	.	1B-	.	.	.	.	.	.	.	1e	.
.	.	.	.	.	.	.	.	.	.	4A/	.	.	.	.	.
.	.	.	.	.	.	.	.	.	.	1B-/	.	.	.	.	.
*	*	*	*	*custos:c	*	*	*	*	*	*	*	*	*	*	*
!	!	!	!	!LO:LB:g=original	!	!	!	!	!	!	!	!	!	!	!
=19-	=19-	=19-	=19-	=19-	=19-	=19-	=19-	=19-	=19-	=19-	=19-	=19-	=19-	=19-	=19-
2r	.	2F\	-ſtri	2r	.	2c\	-ſtri	2r	.	.	.	2r	.	2f/	-ſtri
2F\	Tu	2.FF/	po-	2c\	Tu	2.c\	po-	2f\	Tu	4A/	.	2a\	Tu	2.f/	po-
.	.	.	.	.	.	.	.	.	.	4G/	.	.	.	.	.
2.F\	ho-	.	.	2.c\	ho-	.	.	2.f\	ho-	1A	.	2.a\	ho-	.	.
.	.	4FF/	-pu-	.	.	4c\	-pu-	.	.	.	.	.	.	4f/	-pu-
.	.	2FF/	-li	.	.	2c\	-li	.	.	.	.	.	.	2f/	-li
4F\	-no-	.	.	4c\	-no-	.	.	4f\	-no-	.	.	4a\	-no-	.	.
=20-	=20-	=20-	=20-	=20-	=20-	=20-	=20-	=20-	=20-	=20-	=20-	=20-	=20-	=20-	=20-
2C/	-ri-	1C	noſ-	2c\	-ri-	1E	noſ-	2e\	-ri-	0G	-ſtri	2cc\	-ri-	1g	noſ-
x2C/	-ſi-	.	.	2c\	-ſi-	.	.	2g\	-ſi-	.	.	2cc\	-ſi-	.	.
*custos:G	*	*	*	*	*	*	*	*	*	*	*	*	*	*	*
!LO:LB:g=original	!	!	!	!	!	!	!	!	!	!	!	!	!	!	!
2.G\	-cen-	1FF	-tri	2.B-\	-cen-	1D	-tri	2.g\	-cen-	.	.	2.dd\	-cen-	1g	-tri
4G\	-ti-	.	.	4B-\	-ti-	.	.	4g\	-ti-	.	.	4dd\	-ti-	.	.
=21-	=21-	=21-	=21-	=21-	=21-	=21-	=21-	=21-	=21-	=21-	=21-	=21-	=21-	=21-	=21-
2D/	-a	00r	.	2A/	-a	0r	.	2f#X\	-a	00r	.	1dd	-a	00r	.
*	*	*	*	*lig	*	*	*	*	*	*	*	*	*	*	*
*	*	*	*	*col	*	*	*	*	*	*	*	*	*	*	*
2.G\	po-	.	.	1B-	po-	.	.	2.g\	po-	.	.	.	.	.	.
.	.	.	.	.	.	.	.	.	.	.	.	2r	.	.	.
4G\	-pu-	.	.	.	.	.	.	4g\	-pu-	.	.	.	.	.	.
2F#X\	-li	.	.	2.d\	-pu-	.	.	2a\	-li	.	.	2.dd\	po-	.	.
*	*	*	*	*Xlig	*	*	*	*	*	*	*	*	*	*	*
*	*	*	*	*Xcol	*	*	*	*	*	*	*	*	*	*	*
=22-	=22-	=22-	=22-	=22-	=22-	=22-	=22-	=22-	=22-	=22-	=22-	=22-	=22-	=22-	=22-
0G	no-	.	.	.	.	0r	.	0g	no-	.	.	.	.	.	.
.	.	.	.	4B-\	-li	.	.	.	.	.	.	4dd\	-pu-	.	.
.	.	.	.	2e-X\	.	.	.	.	.	.	.	1cc	-li	.	.
.	.	.	.	1d	no-	.	.	.	.	.	.	.	.	.	.
!	!	!	!	!	!	!	!	!	!	!	!	!LO:N:acc=#	!	!	!
.	.	.	.	.	.	.	.	.	.	.	.	2bn\	noſ-	.	.
=23-	=23-	=23-	=23-	=23-	=23-	=23-	=23-	=23-	=23-	=23-	=23-	=23-	=23-	=23-	=23-
0C	-ſtri	2r	.	0c	-ſtri	2r	.	0e	-ſtri	2r	.	0cc	-tri	2r	.
.	.	1C	Be-	.	.	1c	Be-	.	.	1eny	Be-	.	.	1g	Be-
.	.	2C/	-ne-	.	.	2c/	-ne-	.	.	2e\	-ne-	.	.	2g/	-ne-
=24-	=24-	=24-	=24-	=24-	=24-	=24-	=24-	=24-	=24-	=24-	=24-	=24-	=24-	=24-	=24-
1r	.	2F\	-diC-	1r	.	2c\	-diC-	1r	.	2f\	-diC-	1r	.	2a\	-diC-
.	.	2BB-/	-ta	.	.	2d\	-ta	.	.	2f\	-ta	.	.	2b-\	-ta
*	*	*	*	*	*	*	*	*	*	*	*	*custos:a	*	*	*
!	!	!	!	!	!	!	!	!	!	!	!	!LO:LB:g=original	!	!	!
2r	.	1F	tu	2r	.	1c	tu	2r	.	1f	tu	2r	.	1a	tu
1Fny\	Be-	.	.	1c\	Be-	.	.	1fny\	Be-	.	.	1a\	Be-	.	.
=25-	=25-	=25-	=25-	=25-	=25-	=25-	=25-	=25-	=25-	=25-	=25-	=25-	=25-	=25-	=25-
.	.	0r	.	.	.	0r	.	.	.	0r	.	.	.	0r	.
2F\	-ne-	.	.	2c\	-ne-	.	.	2f\	-ne-	.	.	2a\	-ne-	.	.
2B-\	-diC-	.	.	2d\	-diC-	.	.	2f\	-diC-	.	.	2b-y\	-diC-	.	.
2E-X\	-ta	.	.	2e-X\	-ta	.	.	2g\	-ta	.	.	2b-\	-ta	.	.
=26-	=26-	=26-	=26-	=26-	=26-	=26-	=26-	=26-	=26-	=26-	=26-	=26-	=26-	=26-	=26-
0B-	tu	2r	.	0d	tu	2r	.	0f	tu	2r	.	0b-	tu.	2r	.
*	*	*	*ij	*	*	*	*ij	*	*	*	*	*	*	*	*
.	.	1BB-	Be-	.	.	1B-	Be-	.	.	1f	Be-	.	.	1dd	Be-
.	.	2BB-/	-ne-	.	.	2B-\	-ne-	.	.	2f\	-ne-	.	.	2dd\	-ne-
*	*	*	*	*	*	*custos:A	*	*	*	*custos:f	*	*	*	*custos:cc	*
!	!	!	!	!	!	!LO:LB:g=original	!	!	!	!LO:LB:g=original	!	!	!	!LO:LB:g=original	!
=27-	=27-	=27-	=27-	=27-	=27-	=27-	=27-	=27-	=27-	=27-	=27-	=27-	=27-	=27-	=27-
*	*	*	*	*	*	*lig	*	*	*	*	*	*	*	*	*
0r	.	1F	-diC-	0r	.	1A	-diC-	0r	.	2.f\	-di-	0r	.	2cc\	-diC-
.	.	.	.	.	.	.	.	.	.	.	.	.	.	2.dd\	-ta
.	.	.	.	.	.	.	.	.	.	4e\	.	.	.	.	.
*	*	*lig	*	*	*	*Xlig	*	*	*	*	*	*	*	*	*
.	.	1G	-ta	.	.	1B-	.	.	.	2d\	.	.	.	.	.
.	.	.	.	.	.	.	.	.	.	.	.	.	.	4cc\	.
.	.	.	.	.	.	.	.	.	.	2e\	-Cta	.	.	1b-\	.
=28-	=28-	=28-	=28-	=28-	=28-	=28-	=28-	=28-	=28-	=28-	=28-	=28-	=28-	=28-	=28-
*	*	*	*	*	*	*	*	*	*	*	*	*	*	*	*
2r	.	1F	.	2r	.	1c	-ta	2r	.	0f	tu	2r	.	.	.
2F\	a	.	.	2A/	a	.	.	2f\	a	.	.	2cc\	a	2a\	.
*	*	*Xlig	*	*	*	*	*	*	*	*	*	*	*	*	*
2.B-\	De-	1BB-	tu	1.d	De-	1B-	tu	1f	De-	.	.	2.dd\	De-	1b-	tu
4A\	.	.	.	.	.	.	.	.	.	.	.	4cc\	.	.	.
=29-	=29-	=29-	=29-	=29-	=29-	=29-	=29-	=29-	=29-	=29-	=29-	=29-	=29-	=29-	=29-
!	!	!C	!	!	!	!	!	!	!	!	!	!LO:N:acc=#	!	!	!
2G\	.	0r	.	.	.	0r	.	1g	-o	0r	.	2bn\	.	0r	.
2C/	-o	.	.	2e-X\	-o	.	.	.	.	.	.	1cc	-o	.	.
1G	tu-	.	.	1d	tu-	.	.	1g	tu-	.	.	.	.	.	.
!	!	!	!	!	!	!	!	!	!	!	!	!LO:N:acc=#	!	!	!
.	.	.	.	.	.	.	.	.	.	.	.	2bn\	tu-	.	.
*	*	*custos:C	*Xij	*custos:c	*	*	*Xij	*	*	*	*	*	*	*	*
!	!	!LO:LB:g=original	!	!LO:LB:g=original	!	!	!	!	!	!	!	!	!	!	!
=30-	=30-	=30-	=30-	=30-	=30-	=30-	=30-	=30-	=30-	=30-	=30-	=30-	=30-	=30-	=30-
1C	-o	2r	.	1c	-o	2r	.	1g	-o	2r	.	1cc	-o	2r	.
.	.	2C/	a	.	.	2c\	a	.	.	2e\	a	.	.	2cc\	a
*	*ij	*	*	*	*	*	*	*custos:d	*	*	*	*	*	*	*
!	!	!	!	!	!	!	!	!LO:LB:g=original	!	!	!	!	!	!	!
0r	.	2.F\	De-	0r	.	1.A	De-	0r	.	2f\	De-	0r	.	4cc\	De-
.	.	.	.	.	.	.	.	.	.	.	.	.	.	4b-\	.
.	.	.	.	.	.	.	.	.	.	2c/	-o	.	.	4a\	.
.	.	4E\	.	.	.	.	.	.	.	.	.	.	.	4g/	.
=31-	=31-	=31-	=31-	=31-	=31-	=31-	=31-	=31-	=31-	=31-	=31-	=31-	=31-	=31-	=31-
.	.	2D/	.	.	.	.	.	.	.	0d	tu-	.	.	2f#X/	.
.	.	2GG/	-o	.	.	2B-\	-o	.	.	.	.	.	.	1g	-o
2r	.	1D	tu-	2r	.	1A	tu-	2r	.	.	.	2r	.	.	.
2D/	a	.	.	1d\	a	.	.	2d\	a	.	.	2a\	a	2f#X/	tu-
*custos:G	*	*	*	*	*	*	*	*	*	*	*	*	*	*	*
!LO:LB:g=original	!	!	!	!	!	!	!	!	!	!	!	!	!	!	!
=32-	=32-	=32-	=32-	=32-	=32-	=32-	=32-	=32-	=32-	=32-	=32-	=32-	=32-	=32-	=32-
2.G\	De-	1GG	-o	.	.	1G	-o	2B-/	De-	1d	-o	2.b-y\	de-	1g	-o
.	.	.	.	1c	De-	.	.	2G/	-o	.	.	.	.	.	.
4F\	.	.	.	.	.	.	.	.	.	.	.	4a\	.	.	.
2E-X\	.	0r	.	.	.	1r	.	0g	tu-	0r	.	2b-\	.	0r	.
2C/	-o	.	.	2eny\	-o	.	.	.	.	.	.	1cc\	-o	.	.
=33-	=33-	=33-	=33-	=33-	=33-	=33-	=33-	=33-	=33-	=33-	=33-	=33-	=33-	=33-	=33-
1G	tu-	.	.	1d	tu-	1r	.	.	.	.	.	.	.	.	.
!	!	!	!	!	!	!	!	!	!	!	!	!LO:N:acc=#	!	!	!
.	.	.	.	.	.	.	.	.	.	.	.	2bn\	tu-	.	.
1C	-o	2r	.	1c	-o	2r	.	1g	-o	2r	.	1cc	-o	2r	.
.	.	2C/	in	.	.	2c\	in	.	.	2e\	in	.	.	2g/	in
*	*Xij	*	*	*	*	*	*	*	*	*	*	*	*	*	*
=34-	=34-	=34-	=34-	=34-	=34-	=34-	=34-	=34-	=34-	=34-	=34-	=34-	=34-	=34-	=34-
2r	.	1F	om-	2r	.	1c	om-	2r	.	1f	om-	2r	.	1a	om-
2F\	in	.	.	2A/	in	.	.	2f\	in	.	.	2cc\	in	.	.
1B-	om-	1BB-	-ni	1d	om-	1B-	-ni	1f	om-	1d	-ni	1dd	om-	1cc	-ni
=35-	=35-	=35-	=35-	=35-	=35-	=35-	=35-	=35-	=35-	=35-	=35-	=35-	=35-	=35-	=35-
1F	-ni	2r	.	1c	-ni	2r	.	1f	-ni	2r	.	1a	-ni	2r	.
.	.	1F	ta-	.	.	1c	ta-	.	.	1f	ta-	.	.	1a	ta-
1r	.	.	.	1r	.	.	.	1r	.	.	.	1r	.	.	.
.	.	2F\	-ber-	.	.	2c\	-ber-	.	.	2f\	-ber-	.	.	2a\	-ber-
*	*	*	*	*	*	*	*	*	*	*	*	*custos:a	*	*	*
!	!	!	!	!	!	!	!	!	!	!	!	!LO:LB:g=original	!	!	!
=36-	=36-	=36-	=36-	=36-	=36-	=36-	=36-	=36-	=36-	=36-	=36-	=36-	=36-	=36-	=36-
0r	.	2.G\	-na-	0r	.	2.B-\	-na-	0r	.	2.d\	-na-	0r	.	2.g/	-na-
.	.	4G\	-cu-	.	.	4B-\	-cu-	.	.	4d\	-cu-	.	.	4g/	-cu-
.	.	2G\	-lo	.	.	2B-\	-lo	.	.	2d\	-lo	.	.	2g/	-lo
.	.	2E-X\	Ia-	.	.	2G/	Ia-	.	.	2c/	Ia-	.	.	2g/	Ia-
*	*	*	*	*	*	*	*	*	*	*	*	*	*	*custos:f#	*
!	!	!	!	!	!	!	!	!	!	!	!	!	!	!LO:LB:g=original	!
=37-	=37-	=37-	=37-	=37-	=37-	=37-	=37-	=37-	=37-	=37-	=37-	=37-	=37-	=37-	=37-
2r	.	1D	-cob	2r	.	1A	-cob	2r	.	1d	-cob	2r	.	1f#X	-cob
2D/	prę	.	.	2d\	prę	.	.	2f#X\	prę	.	.	2a\	prę	.	.
!	!	!	!	!	!	!	!	!	!	!	!	!LO:N:acc=#	!	!	!
2.G\	om-	1r	.	2.d\	om-	1r	.	2.g\	om-	1r	.	2.bn\	om-	1r	.
4G\	-ni-	.	.	4d\	-ni-	.	.	4g\	-ni-	.	.	4b\	-ni-	.	.
=38-	=38-	=38-	=38-	=38-	=38-	=38-	=38-	=38-	=38-	=38-	=38-	=38-	=38-	=38-	=38-
2C/	-bus	00r	.	2e-X\	-bus	0r	.	2g\	-bus	00r	.	2cc\	-bus	00r	.
1G	mu-	.	.	1d	mu-	.	.	1g	mu-	.	.	1b-y	mu-	.	.
2F#X\	-li-	.	.	2A/	-li-	.	.	2d\	-li-	.	.	2a\	-li-	.	.
=39-	=39-	=39-	=39-	=39-	=39-	=39-	=39-	=39-	=39-	=39-	=39-	=39-	=39-	=39-	=39-
!	!	!	!	!LO:N:acc=#	!	!	!	!	!	!	!	!	!	!	!
2.G\	-e-	.	.	2.Bn\	-e-	0r	.	2.d\	-e-	.	.	2.g/	-e-	.	.
4G\	-ri-	.	.	4B\	-ri-	.	.	4d\	-ri-	.	.	4g/	-ri-	.	.
2Eny\	-bus	.	.	1c	-bus	.	.	2G/	-bus	.	.	2g/	-bus	.	.
1Fny\	ſu-	.	.	.	.	.	.	2A/	ſu-	.	.	1f/	ſu-	.	.
=40-	=40-	=40-	=40-	=40-	=40-	=40-	=40-	=40-	=40-	=40-	=40-	=40-	=40-	=40-	=40-
.	.	1r	.	2A/	ſu-	1r	.	1cny	-per	1r	.	.	.	1r	.
2A\	-per	.	.	1c	-per	.	.	.	.	.	.	2e/	-per	.	.
1G	ter-	2r	.	.	.	2r	.	1d	ter-	2r	.	1g	ter-	2r	.
!	!	!	!	!LO:N:acc=#	!	!	!	!	!	!	!	!	!	!	!
.	.	2GG/	prę	2Bn\	ter-	2G/	prę	.	.	2d\	prę	.	.	2g/	prę
*	*	*	*	*custos:c	*	*	*	*	*	*custos:e	*	*	*	*	*
!	!	!	!	!LO:LB:g=original	!	!	!	!	!	!LO:LB:g=original	!	!	!	!	!
=41-	=41-	=41-	=41-	=41-	=41-	=41-	=41-	=41-	=41-	=41-	=41-	=41-	=41-	=41-	=41-
1C	-ram	2.C/	om-	1c	-ram	2G/	om-	1c	-ram	2.e\	om-	1e	-ram	2.g/	om-
.	.	.	.	.	.	2c\	-ni-	.	.	.	.	.	.	.	.
.	.	4C/	-ni-	.	.	.	.	.	.	4e\	-ni-	.	.	4g/	-ni-
*	*	*custos:FF	*	*	*	*custos:c	*	*	*	*	*	*	*	*	*
!	!	!LO:LB:g=original	!	!	!	!LO:LB:g=original	!	!	!	!	!	!	!	!	!
1r	.	2FF/	-bus	1r	.	2c\	-bus	1r	.	2f\	-bus	1r	.	2a\	-bus
.	.	1C/	mu-	.	.	1c\	mu-	.	.	1e\	mu-	.	.	1g\	mu-
*custos:F	*	*	*	*	*	*	*	*	*	*	*	*	*	*	*
!LO:LB:g=original	!	!	!	!	!	!	!	!	!	!	!	!	!	!	!
=42-	=42-	=42-	=42-	=42-	=42-	=42-	=42-	=42-	=42-	=42-	=42-	=42-	=42-	=42-	=42-
00r	.	.	.	00r	.	.	.	00r	.	.	.	00r	.	.	.
!	!	!LO:N:acc=#	!	!	!	!	!	!	!	!	!	!	!	!	!
.	.	2BBn/	-li-	.	.	2d\	-li-	.	.	2d\	-li-	.	.	2g/	-li-
.	.	2.C/	-e-	.	.	2.c\	-e-	.	.	2.e\	-e-	.	.	2.g/	-e-
.	.	4C/	-ri-	.	.	4c\	-ri-	.	.	4e\	-ri-	.	.	4g/	-ri-
=43-	=43-	=43-	=43-	=43-	=43-	=43-	=43-	=43-	=43-	=43-	=43-	=43-	=43-	=43-	=43-
.	.	2AA/	-bus	.	.	2c\	-bus	.	.	2f\	-bus	.	.	2a\	-bus
.	.	2.BB-y/	ſu-	.	.	2.B-\	ſu-	.	.	2.d\	ſu-	.	.	2.fny/	ſu-
.	.	4D/	-per	.	.	4A/	-per	.	.	4f\	-per	.	.	4f/	-per
.	.	2C/	ter-	.	.	2c\	ter-	.	.	2e\	ter-	.	.	2g/	ter-
*	*	*	*	*	*	*	*	*custos:c	*	*	*	*	*	*	*
!	!	!	!	!	!	!	!	!LO:LB:g=original	!	!	!	!	!	!	!
=44-	=44-	=44-	=44-	=44-	=44-	=44-	=44-	=44-	=44-	=44-	=44-	=44-	=44-	=44-	=44-
2r	.	1FF	-ram	2r	.	1c	-ram	2r	.	1f	-ram	2r	.	1a	-ram
1F	Be-	.	.	1A	Be-	.	.	1c	Be-	.	.	1f	.	.	.
.	.	1r	.	.	.	1r	.	.	.	1r	.	.	.	1r	.
2E\	-ne-	.	.	2G/	-ne-	.	.	2c/	-ne-	.	.	2g/	.	.	.
=45-	=45-	=45-	=45-	=45-	=45-	=45-	=45-	=45-	=45-	=45-	=45-	=45-	=45-	=45-	=45-
2F\	-diC-	0r	.	2Fny/	-diC-	0r	.	2c/	-diC-	0r	.	2a\	.	0r	.
!	!	!	!	!	!	!	!	!	!	!	!	!LO:N:acc=#	!	!	!
2D/	-tus	.	.	2F/	-tus	.	.	2d\	-tus	.	.	2bn\	.	.	.
2.C/	do-	.	.	2G/	do-	.	.	2.e-X\	do-	.	.	2.cc\	.	.	.
.	.	.	.	2A/	-mi-	.	.	.	.	.	.	.	.	.	.
4C/	-mi-	.	.	.	.	.	.	4e-\	-mi-	.	.	4cc\	.	.	.
=46-	=46-	=46-	=46-	=46-	=46-	=46-	=46-	=46-	=46-	=46-	=46-	=46-	=46-	=46-	=46-
1BB-	-nus	2r	.	1B-y	-nus	2r	.	1d	-nus	2r	.	1f	.	2r	.
.	.	1B-	Be-	.	.	1d	Be-	.	.	1f	Be-	.	.	1b-	Be-
1r	.	.	.	1r	.	.	.	1r	.	.	.	1r	.	.	.
.	.	2A\	-ne-	.	.	2c\	-ne-	.	.	2f\	-ne-	.	.	2cc\	-ne-
=47-	=47-	=47-	=47-	=47-	=47-	=47-	=47-	=47-	=47-	=47-	=47-	=47-	=47-	=47-	=47-
0r	.	2B-\	-dic-	0r	.	2B-\	-dic-	0r	.	2f\	-dic-	0r	.	2dd\	-dic-
.	.	2A\	-tus	.	.	2c\	-tus	.	.	2f\	-tus	.	.	2cc\	-tus
.	.	2.G\	do-	.	.	2d\	do-	.	.	2g\	do-	.	.	2.b-\	do-
.	.	.	.	.	.	2c\	mi-	.	.	2d\	mi-	.	.	.	.
.	.	4G\	mi-	.	.	.	.	.	.	.	.	.	.	4b-\	-mi-
*	*	*	*	*	*	*	*	*	*	*	*	*custos:f	*	*custos:a	*
!	!	!	!	!	!	!	!	!	!	!	!	!LO:LB:g=original	!	!LO:LB:g=original	!
=48-	=48-	=48-	=48-	=48-	=48-	=48-	=48-	=48-	=48-	=48-	=48-	=48-	=48-	=48-	=48-
2r	.	1F	-nus	2r	.	1c	-nus	2r	.	1f	-nus	2r	.	1a	-nus
2.F\	qu-	.	.	2.A/	qu-	.	.	2.c/	qu-	.	.	2.f/	qu-	.	.
.	.	1r	.	.	.	1r	.	.	.	1r	.	.	.	1r	.
4F\	-ia	.	.	4A/	-ia	.	.	4c/	-ia	.	.	4f/	-ia	.	.
4D/	no-	.	.	4A/	no-	.	.	4d\	no-	.	.	4f/	no-	.	.
4D/	-men	.	.	4A/	-men	.	.	4d\	-men	.	.	4f/	-men	.	.
=49-	=49-	=49-	=49-	=49-	=49-	=49-	=49-	=49-	=49-	=49-	=49-	=49-	=49-	=49-	=49-
!	!	!	!	!LO:N:acc=#	!	!	!	!	!	!	!	!	!	!	!
2G\	tu-	0r	.	2Bn\	tu-	0r	.	2d\	tu-	0r	.	2g/	tu-	0r	.
2C/	-um	.	.	2c\	-um	.	.	2eny\	-um	.	.	2g/	-um	.	.
2F\	i-	.	.	2c\	i-	.	.	2fny\	i-	.	.	2a\	i-	.	.
4F\	-ta	.	.	4c\	-ta	.	.	4f\	-ta	.	.	4a\	-ta	.	.
4A\	mag-	.	.	4c\	mag-	.	.	4f\	mag-	.	.	4a\	mag-	.	.
=50-	=50-	=50-	=50-	=50-	=50-	=50-	=50-	=50-	=50-	=50-	=50-	=50-	=50-	=50-	=50-
4B-\	-ni-	1r	.	4d\	-ni-	1r	.	4d\	-ni-	1r	.	4f/	-ni-	1r	.
4A\	-fi-	.	.	4c\	-fi-	.	.	4f\	-fi-	.	.	4f/	-fi-	.	.
2G\	-ca-	.	.	2B-y\	-ca-	.	.	2e\	-ca-	.	.	2g/	-ca-	.	.
1F	-uit	2r	.	1c	-uit	2r	.	1f	-uit	2r	.	1a	-uit	2r	.
*	*	*	*ij	*	*	*	*ij	*	*	*	*ij	*	*	*	*
.	.	1F/	Be-	.	.	1A/	Be-	.	.	1c/	Be-	.	.	1f/	Be-
=51-	=51-	=51-	=51-	=51-	=51-	=51-	=51-	=51-	=51-	=51-	=51-	=51-	=51-	=51-	=51-
0r	.	.	.	0r	.	.	.	0r	.	.	.	0r	.	.	.
.	.	2Eny\	-ne-	.	.	2G/	-ne-	.	.	2c/	-ne-	.	.	2g/	-ne-
*	*	*	*	*	*	*	*	*	*	*custos:c	*	*	*	*	*
!	!	!	!	!	!	!	!	!	!	!LO:LB:g=original	!	!	!	!	!
.	.	2F\	-diC-	.	.	2F/	-diC-	.	.	2c/	-diC-	.	.	2a\	-diC-
!	!	!	!	!	!	!	!	!	!	!	!	!	!	!LO:N:acc=#	!
.	.	2D/	-tus	.	.	2F/	-tus	.	.	2d\	-tus	.	.	2bn\	-tus
*	*	*custos:C	*	*	*	*custos:G	*	*	*	*	*	*	*	*	*
!	!	!LO:LB:g=original	!	!	!	!LO:LB:g=original	!	!	!	!	!	!	!	!	!
=52-	=52-	=52-	=52-	=52-	=52-	=52-	=52-	=52-	=52-	=52-	=52-	=52-	=52-	=52-	=52-
1r	.	2.C/	do-	1r	.	2G/	do-	1r	.	2.e-X\	do-	1r	.	2.cc\	Do-
.	.	.	.	.	.	2A/	mi-	.	.	.	.	.	.	.	.
.	.	4BB-/	mi-	.	.	.	.	.	.	4e-\	-mi-	.	.	4cc\	-mi-
*	*	*	*	*custos:d	*	*	*	*	*	*	*	*	*	*	*
!	!	!	!	!LO:LB:g=original	!	!	!	!	!	!	!	!	!	!	!
2r	.	1BB-	-nus	2r	.	1B-	-nus	2r	.	1d	-nus	2r	.	1f	-nus
1B-\	Be-	.	.	1d\	Be-	.	.	1f\	Be-	.	.	1b-y\	Be-	.	.
=53-	=53-	=53-	=53-	=53-	=53-	=53-	=53-	=53-	=53-	=53-	=53-	=53-	=53-	=53-	=53-
.	.	0r	.	.	.	0r	.	.	.	0r	.	.	.	0r	.
2A\	-ne-	.	.	2c\	-ne-	.	.	2f\	-ne-	.	.	2cc\	-ne-	.	.
*custos:B-	*	*	*Xij	*	*	*	*Xij	*custos:f	*	*	*Xij	*	*	*	*
!LO:LB:g=original	!	!	!	!	!	!	!	!LO:LB:g=original	!	!	!	!	!	!	!
2B-\	-diC-	.	.	2B-\	-diC-	.	.	2f\	-diC-	.	.	2dd\	-diC-	.	.
2A\	-tus	.	.	2c\	-tus	.	.	2f\	-tus	.	.	2cc\	-tus	.	.
=54-	=54-	=54-	=54-	=54-	=54-	=54-	=54-	=54-	=54-	=54-	=54-	=54-	=54-	=54-	=54-
2.G\	Do-	1r	.	2d\	Do-	1r	.	2g\	Do-	1r	.	2.b-\	Do-	1r	.
.	.	.	.	2B-\	-mi-	.	.	2d\	-mi-	.	.	.	.	.	.
4G\	-mi-	.	.	.	.	.	.	.	.	.	.	4b-\	-mi-	.	.
1F	-nus	2r	.	1c	-nus	2r	.	1f	-nus	2r	.	1a	-nus	2r	.
.	.	2.F\	qu-	.	.	2.A/	qu-	.	.	2.c/	qu-	.	.	2.f/	qu-
=55-	=55-	=55-	=55-	=55-	=55-	=55-	=55-	=55-	=55-	=55-	=55-	=55-	=55-	=55-	=55-
1r	.	.	.	1r	.	.	.	1r	.	.	.	1r	.	.	.
.	.	4F\	-ia	.	.	4A/	-ia	.	.	4d\	-ia	.	.	4f/	-ia
.	.	4D/	no-	.	.	4A/	no-	.	.	4d\	no-	.	.	4f/	no-
.	.	4D/	men	.	.	4A/	men	.	.	4d\	men	.	.	4f/	men
2r	.	2G\	tu-	2r	.	2Bn\	tu-	2r	.	2d\	tu-	2r	.	2g/	tu-
2.C/	qu-	2C/	-um	2.G/	qu-	2c\	-um	2.e\	qu-	2eny\	-um	2.cc\	qu-	2g/	-um
=56-	=56-	=56-	=56-	=56-	=56-	=56-	=56-	=56-	=56-	=56-	=56-	=56-	=56-	=56-	=56-
.	.	00r	.	.	.	0r	.	.	.	00r	.	.	.	00r	.
4C/	-ia	.	.	4G/	-ia	.	.	4e\	-ia	.	.	4cc\	-ia	.	.
4AA/	no-	.	.	4A/	no-	.	.	4f\	no-	.	.	4cc\	no-	.	.
4AA/	-men	.	.	4A/	-men	.	.	4e\	-men	.	.	4cc\	-men	.	.
*	*	*	*	*	*	*	*	*	*	*	*	*custos:a	*	*	*
!	!	!	!	!	!	!	!	!	!	!	!	!LO:LB:g=original	!	!	!
2D/	tu-	.	.	2F#X/	tu-	.	.	2d\	tu-	.	.	2a\	tu-	.	.
2GG/	-um	.	.	2G/	-um	.	.	2d\	-um	.	.	2b-\	-um	.	.
=57-	=57-	=57-	=57-	=57-	=57-	=57-	=57-	=57-	=57-	=57-	=57-	=57-	=57-	=57-	=57-
2D/	i-	.	.	2Fny/	i-	0r	.	2d\	i-	.	.	2a\	i-	.	.
4D/	-ta	.	.	4F/	-ta	.	.	4d\	-ta	.	.	4a\	-ta	.	.
4D/	mag-	.	.	4F/	mag-	.	.	4d\	mag-	.	.	4a\	mag-	.	.
4D/	-ni-	.	.	4D/	-ni-	.	.	4f\	-ni-	.	.	4a\	-ni-	.	.
4C#X/	-fi-	.	.	4E/	-fi-	.	.	4e\	-fi-	.	.	4a\	-fi-	.	.
2D/	-ca-	.	.	2F#yX/	-ca-	.	.	2d\	-ca-	.	.	2a\	-ca-	.	.
=58-	=58-	=58-	=58-	=58-	=58-	=58-	=58-	=58-	=58-	=58-	=58-	=58-	=58-	=58-	=58-
1AA	-uit	2A\	i-	1E	-uit	2c#X\	i-	1c#X	-uit	2e\	i-	1a	-uit	2a\	i-
.	.	4A\	-ta	.	.	4c#\	-ta	.	.	4e\	-ta	.	.	4a\	-ta
.	.	4A\	mag-	.	.	4c#\	mag-	.	.	4e\	mag-	.	.	4a\	mag-
1r	.	4A\	-ni-	1r	.	4c#\	-ni-	1r	.	4e\	-ni-	1r	.	4a\	-ni-
.	.	4G\	-fi-	.	.	4d\	-fi-	.	.	4g\	-fi-	.	.	4b-y\	-fi-
.	.	2A\	-ca-	.	.	2c#X\	-ca-	.	.	2e\	-ca-	.	.	2a\	-ca-
=59-	=59-	=59-	=59-	=59-	=59-	=59-	=59-	=59-	=59-	=59-	=59-	=59-	=59-	=59-	=59-
4r	.	1D	-uit	4r	.	1d	-uit	4r	.	1f#X	-uit	4r	.	1a	-uit
4D/	Vt	.	.	4A/	Vt	.	.	4f#X\	Vt	.	.	4dd\	Vt	.	.
*	*	*	*	*custos:A	*	*	*	*	*	*	*	*	*	*	*
!	!	!	!	!LO:LB:g=original	!	!	!	!	!	!	!	!	!	!	!
4D/	non	.	.	4A/	non	.	.	4f#\	non	.	.	4dd\	non	.	.
4D/	re-	.	.	4d\	re-	.	.	4f#\	re-	.	.	4dd\	re-	.	.
!	!	!	!	!	!	!	!	!	!	!	!	!LO:N:acc=#	!	!	!
2G\	-ce-	4r	.	2d\	-ce-	4r	.	2g\	-ce-	4r	.	2bn\	-ce-	4r	.
.	.	4GG/	Vt	.	.	4Bn\	Vt	.	.	4g\	Vt	.	.	4dd\	Vt
*	*	*	*	*	*	*	*	*	*	*	*	*	*	*custos:dd	*
!	!	!	!	!	!	!	!	!	!	!	!	!	!	!LO:LB:g=original	!
2G\	-dat	4GG/	non	2d\	-dat	4B\	non	2g\	-dat	4g\	non	2b\	-dat	4dd\	non
.	.	4GG/	re-	.	.	4B\	re-	.	.	4g\	re-	.	.	4dd\	re-
*custos:C	*ij	*	*	*	*ij	*custos:c	*	*custos:e	*ij	*	*	*	*ij	*	*
!LO:LB:g=original	!	!	!	!	!	!LO:LB:g=original	!	!LO:LB:g=original	!	!	!	!	!	!	!
=60-	=60-	=60-	=60-	=60-	=60-	=60-	=60-	=60-	=60-	=60-	=60-	=60-	=60-	=60-	=60-
4r	.	2C/	-ce-	4r	.	1c	-ce-	4r	.	2e\	-ce-	4r	.	2cc\	-ce-
4Cny/	Vt	.	.	4c\	Vt	.	.	4e\	Vt	.	.	4cc\	Vt	.	.
4C/	non	2C/	-dat	4c\	non	.	.	4e\	non	2e\	-dat	4cc\	non	2g/	-dat
4C/	re-	.	.	4G/	re-	.	.	4e\	re-	.	.	4cc\	re-	.	.
*	*	*custos:FF	*ij	*	*	*	*	*	*	*custos:f	*ij	*	*	*	*ij
!	!	!LO:LB:g=original	!	!	!	!	!	!	!	!LO:LB:g=original	!	!	!	!	!
2F\	-ce-	4r	.	2A/	-ce-	0c	-dat	2fny\	-ce-	4r	.	2a\	-ce-	4r	.
.	.	4FF/	Vt	.	.	.	.	.	.	4fny\	Vt	.	.	4a\	Vt
2F\	-dat	4FF/	non	2A/	-dat	.	.	2cny/	-dat	4f\	non	2f/	-dat	4a\	non
.	.	4FF/	re-	.	.	.	.	.	.	4f\	re-	.	.	4a\	re-
*	*Xij	*	*	*	*Xij	*	*	*	*Xij	*	*	*	*Xij	*	*
=61-	=61-	=61-	=61-	=61-	=61-	=61-	=61-	=61-	=61-	=61-	=61-	=61-	=61-	=61-	=61-
2r	.	2C/	-ce-	2r	.	.	.	2r	.	2e\	-ce-	2r	.	2g/	-ce-
2C/	Laus	2C/	-dat	2c\	Laus	.	.	2e\	Laus	2e\	-dat	2cc\	Laus	2g/	-dat
2F\	tu-	2r	.	2c\	tu-	2r	.	2f\	tu-	2r	.	2a\	tu-	2r	.
*	*	*	*Xij	*	*	*	*	*	*	*	*Xij	*	*	*	*Xij
2C/	-a	2C/	Laus	2c\	-a	2c\	Laus	2e\	-a	2e\	Laus	2g/	-a	2cc\	Laus
=62-	=62-	=62-	=62-	=62-	=62-	=62-	=62-	=62-	=62-	=62-	=62-	=62-	=62-	=62-	=62-
2r	.	2F\	tu-	2r	.	2c\	tu-	2r	.	2f\	tu-	2r	.	2a\	tu-
*	*ij	*	*	*	*ij	*	*	*	*ij	*	*	*	*ij	*	*
2C/	Laus	2C/	-a	2c\	Laus	2c\	-a	2e\	Laus	2e\	-a	2cc\	Laus	2g/	-a
*	*	*	*ij	*	*	*	*ij	*	*	*	*ij	*custos:a	*	*	*ij
!	!	!	!	!	!	!	!	!	!	!	!	!LO:LB:g=original	!	!	!
2F\	tu-	2r	.	2c\	tu-	2r	.	2f\	tu-	2r	.	2a\	tu-	2r	.
2C/	-a	2C/	Laus	2c\	-a	2c\	Laus	2e\	-a	2e\	Laus	2g/	-a	2cc\	Laus
=63-	=63-	=63-	=63-	=63-	=63-	=63-	=63-	=63-	=63-	=63-	=63-	=63-	=63-	=63-	=63-
1r	.	2F\	tu-	1r	.	2c\	tu-	1r	.	2f\	tu-	1r	.	2a\	tu-
.	.	2C/	-a	.	.	2c\	-a	.	.	2e\	-a	.	.	2g/	-a
2r	.	2r	.	2r	.	2r	.	2r	.	2r	.	2r	.	2r	.
*	*Xij	*	*Xij	*	*Xij	*	*Xij	*	*Xij	*	*Xij	*	*Xij	*	*Xij
2C/	de	2C/	de	2E/	de	2G/	de	2c/	de	1e\	de	2g/	de	2cc\	de
=64-	=64-	=64-	=64-	=64-	=64-	=64-	=64-	=64-	=64-	=64-	=64-	=64-	=64-	=64-	=64-
2C/	o-	2.E\	o-	1.G	o-	2.G/	o-	2c/	o-	.	.	1.g	o-	1cc	o-
2C/	-re	.	.	.	.	.	.	2G/	-re	2.g\	o-	.	.	.	.
.	.	4F\	.	.	.	4A/	.	.	.	.	.	.	.	.	.
2.GG/	ho-	2G\	.	.	.	2B-\	.	2r	.	.	.	.	.	2b-\	-re
.	.	.	.	.	.	.	.	.	.	4d\	-re	.	.	.	.
.	.	2G\	-re	1D/	-re	2G/	-re	1d\	ho-	1g\	ho-	2b-y\	-re	1dd\	ho-
4GG/	-mi-	.	.	.	.	.	.	.	.	.	.	.	.	.	.
=65-	=65-	=65-	=65-	=65-	=65-	=65-	=65-	=65-	=65-	=65-	=65-	=65-	=65-	=65-	=65-
0D	-num	1.D	ho-	.	.	1.A	ho-	.	.	.	.	2.a\	ho-	.	.
.	.	.	.	2.d\	ho-	.	.	2A/	-mi-	4f#X\	.	.	.	2dd\	-mi-
.	.	.	.	.	.	.	.	.	.	4e\	.	4a\	-mi-	.	.
.	.	.	.	.	.	.	.	1d	-num	2f#X\	.	1a	-num	0.dd	-num
.	.	.	.	4d\	-mi-	.	.	.	.	.	.	.	.	.	.
.	.	2D/	-mi-	2A/	-num	2A/	-mi-	.	.	2f#\	-mi-	.	.	.	.
=66-	=66-	=66-	=66-	=66-	=66-	=66-	=66-	=66-	=66-	=66-	=66-	=66-	=66-	=66-	=66-
2r	.	0GG	-num	2r	.	0Bn	-num	2r	.	0g	-num	2r	.	.	.
!	!	!	!	!LO:N:acc=#	!	!	!	!	!	!	!	!	!	!	!
2G\	qui	.	.	2Bn\	qui	.	.	2d\	qui	.	.	2g/	qui	.	.
*	*	*	*	*custos:B	*	*	*	*	*	*	*	*	*	*	*
!	!	!	!	!LO:LB:g=original	!	!	!	!	!	!	!	!	!	!	!
2.G\	me-	.	.	2.B\	me-	.	.	2.d\	me-	.	.	2.g/	me-	.	.
4G\	-mo-	.	.	4B\	-mo-	.	.	4d\	-mo-	.	.	4g/	-mo-	.	.
=67-	=67-	=67-	=67-	=67-	=67-	=67-	=67-	=67-	=67-	=67-	=67-	=67-	=67-	=67-	=67-
2C/	-res	00r	.	2c\	-res	0r	.	2e\	-res	00r	.	2g/	-res	00r	.
*custos:F	*	*	*	*	*	*	*	*	*	*	*	*	*	*	*
!LO:LB:g=original	!	!	!	!	!	!	!	!	!	!	!	!	!	!	!
2.F\	fu-	.	.	2.c\	fu-	.	.	2.f\	fu-	.	.	2.a\	fu-	.	.
4F\	-e-	.	.	4c\	-e-	.	.	4f\	-e-	.	.	4a\	-e-	.	.
*	*	*	*	*	*	*	*	*custos:d	*	*	*	*	*	*	*
!	!	!	!	!	!	!	!	!LO:LB:g=original	!	!	!	!	!	!	!
2G\	-rint	.	.	2B-y\	-rint	.	.	2d\	-rint	.	.	2g/	-rint	.	.
=68-	=68-	=68-	=68-	=68-	=68-	=68-	=68-	=68-	=68-	=68-	=68-	=68-	=68-	=68-	=68-
2D/	vir-	.	.	1A	vir-	0r	.	2d\	vir-	.	.	2f/	vir-	.	.
1F	-tu-	.	.	.	.	.	.	2c/	-tu-	.	.	1a	-tu-	.	.
.	.	.	.	2Fny/	-tu-	.	.	2A/	-tis	.	.	.	.	.	.
2C/	-tis	.	.	2G/	-tis	.	.	1c\	Do-	.	.	2g/	-tis	.	.
=69-	=69-	=69-	=69-	=69-	=69-	=69-	=69-	=69-	=69-	=69-	=69-	=69-	=69-	=69-	=69-
2.D/	do-	1r	.	2A/	do-	1r	.	.	.	1r	.	2.f/	do-	1r	.
!	!	!	!	!	!	!	!	!LO:N:acc=#	!	!	!	!	!	!	!
.	.	.	.	2F/	-mi-	.	.	2Bn/	-mi-	.	.	.	.	.	.
4D/	-mi-	.	.	.	.	.	.	.	.	.	.	4f/	-mi-	.	.
*	*	*	*	*	*	*	*	*	*	*	*	*lig	*	*	*
0C	-ni	2r	.	0G	-ni	2r	.	0c	-ni	2r	.	1e	-ni	2r	.
.	.	2C/	qui	.	.	2c\	qui	.	.	2e\	qui	.	.	2g/	qui
*	*	*	*	*	*	*	*	*	*	*	*	*	*	*custos:g	*
!	!	!	!	!	!	!	!	!	!	!	!	!	!	!LO:LB:g=original	!
=70-	=70-	=70-	=70-	=70-	=70-	=70-	=70-	=70-	=70-	=70-	=70-	=70-	=70-	=70-	=70-
.	.	2.C/	me-	.	.	2.c\	me-	.	.	2.e\	me-	1g	.	2.g/	me-
.	.	4C/	-mo-	.	.	4c\	-mo-	.	.	4e\	-mo-	.	.	4g/	-mo-
!LO:TX:t=P:problem:Verovio nie wyświetla pauzy	!	!	!	!LO:TX:t=P:problem: Verovio nie wyświetla pauzy	!	!	!	!	!	!	!	!	!	!	!
*	*	*	*	*	*	*	*	*	*	*custos:f	*	*Xlig	*	*	*
!	!	!	!	!	!	!	!	!	!	!LO:LB:g=original	!	!	!	!	!
1r	.	2C/	-res	1r	.	2c\	-res	1r	.	2fny\	-res	1r	.	2a\	-res
*	*	*custos:BB-	*	*	*	*custos:c	*	*	*	*	*	*	*	*	*
!	!	!LO:LB:g=original	!	!	!	!LO:LB:g=original	!	!	!	!	!	!	!	!	!
.	.	2.BB-/	fu-	.	.	2.d\	fu-	.	.	2.f\	fu-	.	.	2.b-\	fu-
=71-	=71-	=71-	=71-	=71-	=71-	=71-	=71-	=71-	=71-	=71-	=71-	=71-	=71-	=71-	=71-
00r	.	.	.	00r	.	.	.	00r	.	.	.	00r	.	.	.
.	.	4BB-/	-e-	.	.	4d\	-e-	.	.	4f\	-e-	.	.	4b-\	-e-
.	.	2C/	-rint	.	.	2c\	-rint	.	.	2e-X\	-rint	.	.	1g	-rint
.	.	2GG/	vir-	.	.	2B-\	vir-	.	.	2d\	vir-	.	.	.	.
.	.	1E-X\	-tu-	.	.	2G/	-tu-	.	.	2c/	-tu-	.	.	2g/	vir-
=72-	=72-	=72-	=72-	=72-	=72-	=72-	=72-	=72-	=72-	=72-	=72-	=72-	=72-	=72-	=72-
.	.	.	.	.	.	2G/	-tis	.	.	1B-	-tis	.	.	2b-\	-tu-
.	.	2D/	-tis	.	.	1B-	do-	.	.	.	.	.	.	2b-\	-tis
.	.	2.C/	do-	.	.	.	.	.	.	2.e-X\	do-	.	.	2.cc\	do-
.	.	.	.	.	.	2A/	-mi-	.	.	.	.	.	.	.	.
.	.	4C/	-mi-	.	.	.	.	.	.	4e-\	-mi-	.	.	4cc\	-mi-
*	*	*	*	*	*	*	*	*	*	*	*	*custos:b-	*	*	*
!	!	!	!	!	!	!	!	!	!	!	!	!LO:LB:g=original	!	!	!
=73-	=73-	=73-	=73-	=73-	=73-	=73-	=73-	=73-	=73-	=73-	=73-	=73-	=73-	=73-	=73-
2r	.	1BB-	-ni	2r	.	1B-	-ni	2r	.	1d	-ni	2r	.	1f	-ni
2.BB-/	In	.	.	2.d\	In	.	.	2.f\	In	.	.	2.b-\	In	.	.
.	.	1r	.	.	.	1r	.	.	.	1r	.	.	.	1r	.
4GG/	æ-	.	.	4d\	ę-	.	.	4g\	æ-	.	.	4b-\	ę-	.	.
2C/	-ter-	.	.	2c\	-ter-	.	.	2e\	-ter-	.	.	2g/	-ter-	.	.
=74-	=74-	=74-	=74-	=74-	=74-	=74-	=74-	=74-	=74-	=74-	=74-	=74-	=74-	=74-	=74-
1FF	-num	2r	.	1c	-num	2r	.	1f	-num	2r	.	1a	-num	2r	.
.	.	2.F\	In	.	.	2.c\	In	.	.	2.f\	In	.	.	2.a\	In
1r	.	.	.	1r	.	.	.	1r	.	.	.	1r	.	.	.
.	.	4D/	ę-	.	.	4d\	ę-	.	.	4f\	ę-	.	.	4a\	ę-
.	.	2G\	-ter-	.	.	2Bn\	-ter-	.	.	2d\	-ter-	.	.	2g/	-ter-
=75-	=75-	=75-	=75-	=75-	=75-	=75-	=75-	=75-	=75-	=75-	=75-	=75-	=75-	=75-	=75-
2r	.	1C	-num	2r	.	1c	-num	2r	.	1eny	-num	2r	.	1g	-num
*	*ij	*	*	*	*ij	*	*	*	*ij	*	*	*	*ij	*	*
2.C/	In	.	.	2.G/	In	.	.	2.e\	In	.	.	2.cc\	In	.	.
.	.	1r	.	.	.	1r	.	.	.	1r	.	.	.	1r	.
4AA/	æ-	.	.	4A/	ę-	.	.	4e\	æ-	.	.	4cc\	ę-	.	.
2D/	-ter-	.	.	2F#X/	-ter-	.	.	1d\	-ter-	.	.	2a\	-ter-	.	.
=76-	=76-	=76-	=76-	=76-	=76-	=76-	=76-	=76-	=76-	=76-	=76-	=76-	=76-	=76-	=76-
!	!	!	!	!	!	!	!	!	!	!	!	!LO:N:acc=#	!	!	!
2GG/	-num	2r	.	2G/	-num	2r	.	.	.	2r	.	2bn\	-num	2r	.
*	*Xij	*	*ij	*	*Xij	*	*ij	*	*	*	*ij	*	*Xij	*	*ij
!	!	!	!	!LO:N:acc=#	!	!	!	!	!	!	!	!	!	!	!
1G	in	1GG	In	1Bn	in	2G/	in	2d\	num	2.d\	in	1dd	in	1g	in
.	.	.	.	.	.	2D/	ę-	2r	.	.	.	.	.	.	.
.	.	.	.	.	.	.	.	.	.	2G/	ę-	.	.	.	.
*	*	*	*	*	*	*	*	*	*Xij	*	*	*	*	*	*
2C/	æ-	2C/	ę-	2c\	ę-	2E/	-ter-	2.g\	in	.	.	2cc\	ę-	2g/	ę-
.	.	.	.	.	.	.	.	.	.	2c\	-ter-	.	.	.	.
=77-	=77-	=77-	=77-	=77-	=77-	=77-	=77-	=77-	=77-	=77-	=77-	=77-	=77-	=77-	=77-
*lig	*	*lig	*	*lig	*	*	*	*	*	*	*	*	*	*	*
1F	-ter-	1FF	-ter-	1A	-ter-	00.C	-num	.	.	.	.	0c	-ter-	2.a\	-ter-
.	.	.	.	.	.	.	.	4f\	æ-	4A/	-num	.	.	.	.
.	.	.	.	.	.	.	.	2.f\	-ter-	4r	.	.	.	.	.
*	*	*	*	*	*	*	*	*	*	*	*Xij	*	*	*	*
.	.	.	.	.	.	.	.	.	.	2c/	in	.	.	8g/	.
.	.	.	.	.	.	.	.	.	.	.	.	.	.	8f/	.
1C	.	1C	.	1G	.	.	.	.	.	.	.	.	.	1g	.
.	.	.	.	.	.	.	.	8e\	.	4G/	ę-	.	.	.	.
.	.	.	.	.	.	.	.	8d\	.	.	.	.	.	.	.
.	.	.	.	.	.	.	.	2e\	.	2c/	-ter-	.	.	.	.
*Xlig	*	*Xlig	*	*Xlig	*	*	*	*	*	*	*	*	*	*	*
=78-	=78-	=78-	=78-	=78-	=78-	=78-	=78-	=78-	=78-	=78-	=78-	=78-	=78-	=78-	=78-
00F	-num.	00FF	-num	00Fny	-num.	.	.	00f	-num.	00A	-num.	00cc	-num.	00a	-num
==	==	==	==	==	==	==	==	==	==	==	==	==	==	==	==
*-	*-	*-	*-	*-	*-	*-	*-	*-	*-	*-	*-	*-	*-	*-	*-
!!!system-decoration: [(s1,s2,s3,s4,s5,s6,s7,s8)]
!!!ENC: Filip Voros
!!!END: 2022-07-15
!!!ENC: Natalia Wrzos
!!!END: 2022-08-11
